X: 10658
T: Down The Broom
R: reel
M: 4/4
K: Adorian
A2BG A2Bd|egdg eGGD|~G3D G2AB|cABA GEDE|
A2BG A2Bd|egdg eaae|gedB c2{B}cd|1 egdB BAGE:|2 egdB BAA2||
abae abae|gaba gede|~g3d g2Bd|gaba ged2|
abae abae|gaba gede|gedB c2{B}cd|1 egdB BAA2:|2 egdB BAGE||

